X: 22221
T: La Cosa Mulligan
R: reel
M: 4/4
K: Dmajor
AF|D2 FD EDFD|DDFD EA,A,A,|CEEE GBec|AecA dBAF|
D2 FD EDFD|DDFD ABce|AcBc dBAG|FADC D2:|
E|fddc d3e|fddd edcB|A2cA AAcA|AAcA efge|
fddc d3e|fddd edcB|Aece gecd|eddc d3:|

